X:1
T: Pease Bridge
C:Abraham Mackintosh
R:Strathspey
Q: 128
K:Dm
M:4/4
L:1/16
|:fe|d3A F3A d3e f3d|ce3 A3c G3c E3^c|d3A F3A d3e f3d|e2fg g2fe fd3 d2fe|
d3A F3A d3e f3d|ce3 A3c G3c E3^c|d3A F3A d3e f3d|e2fg g2fe fd3 d2:|
|:fg|a3f d3a fd3 a3f|ge3 c3g ec3 g3e|a3f d3a fd3 a3f|e2fg g2fe fd3 d2fg|
a3f d3a fd3 a3f|g3e c3g ec3 e2fg|((3a2f2a2) ((3g2e2g2) ((3f2d2f2) ((3e2^c2e2) |dB3 A3G FD3 D2:|
